X: 22853
T: Lark In The Morning, The
R: jig
M: 6/8
K: Dmajor
d2 B|:AFA AFA|BGB B[Gd]B|AFA AFA|fed BdB|
AFA AFA|BGB BAB|def afe|1 fdB B2 d:|2 fdB B2 A||
|:def a2 a|baf ~a3|def afe|fdB BAB|
def a2 a|baf afd|g2 g faf|edB BAB:|
|:[A2d2] f fef|fef fef|d2 f fef|edB BAB|
d2 f fef|fef fed|faf gfe|1 fdB BdB:|2 edB B3||
|:Add fdd|edd fdd|Add fdd|edB BAF|
~A2 d f2 d|edd fdd|faf gfe|1 fdB B2 d:|2 fdB B2 B||

